Newaita-dark/apps/48/words.svg

<svg height="48" viewBox="0 0 48 48" width="48" xmlns="http://www.w3.org/2000/svg" xmlns:xlink="http://www.w3.org/1999/xlink"><linearGradient id="a" gradientTransform="matrix(.111618 0 0 .093759 -3.945504 20.158178)" gradientUnits="userSpaceOnUse" x1="254" x2="254" y1="233.5" y2="254.666672"><stop offset="0" stop-opacity=".27451"/><stop offset="1" stop-opacity="0"/></linearGradient><linearGradient id="b"><stop offset="0" stop-opacity=".313726"/><stop offset=".222222" stop-opacity=".27451"/><stop offset="1" stop-opacity="0"/></linearGradient><radialGradient id="c" cx="450.908936" cy="189.579361" gradientTransform="matrix(.00000026 -.117199 -.210958 -.00000015 75.715273 95.392999)" gradientUnits="userSpaceOnUse" r="21.166656" xlink:href="#b"/><radialGradient id="d" cx="450.908936" cy="189.579361" gradientTransform="matrix(-.00000026 .117199 .210958 .00000015 -28.085722 -11.291218)" gradientUnits="userSpaceOnUse" r="21.166656" xlink:href="#b"/><radialGradient id="e" cx="450.908936" cy="189.579361" gradientTransform="matrix(-.00000026 -.117199 .210958 -.00000015 -28.085722 95.392999)" gradientUnits="userSpaceOnUse" r="21.166656" xlink:href="#b"/><radialGradient id="f" cx="450.908936" cy="189.579361" gradientTransform="matrix(.00000026 .117199 -.210958 .00000015 75.71527 -11.291219)" gradientUnits="userSpaceOnUse" r="21.166656" xlink:href="#b"/><linearGradient id="g" gradientUnits="userSpaceOnUse" x1="23.814786" x2="23.814786" y1="42.0509005" y2="4.34415549995"><stop offset="0" stop-color="#e0e0e0"/><stop offset="1" stop-color="#eee"/></linearGradient><linearGradient id="h"><stop offset="0" stop-color="#81c784"/><stop offset="1" stop-color="#66bb6a"/></linearGradient><linearGradient id="i" gradientUnits="userSpaceOnUse" x1="38.78924394122" x2="38.78924394122" xlink:href="#h" y1="-24.34938184647" y2="13.35736174719"/><linearGradient id="j" gradientUnits="userSpaceOnUse" x1="25.7993528751" x2="25.7993528751" xlink:href="#h" y1="12.53048887502" y2="33.36842587495"/><path d="m11.410156 42.050781h24.808594v1.984375h-24.808594zm0 0" fill="url(#a)"/><path d="m36.21875 42.050781h3.96875v-1.984375h-3.96875zm0 0" fill="url(#c)"/><path d="m11.410156 42.050781h-3.96875v1.984375h3.96875zm0 0" fill="url(#d)"/><path d="m11.410156 42.050781h-3.96875v-1.984375h3.96875zm0 0" fill="url(#e)"/><path d="m36.21875 42.050781h3.96875v1.984375h-3.96875zm0 0" fill="url(#f)"/><path d="m29.859375 4.34375h-19.9375c-1.097656 0-1.984375.886719-1.984375 1.984375v33.738281c0 1.097656.886719 1.984375 1.984375 1.984375h27.785156c1.097657 0 1.984375-.886719 1.984375-1.984375v-26.710937zm0 0" fill="url(#g)"/><path d="m29.859375 4.34375 9.832031 9.011719v-7.027344c0-1.097656-.886718-1.984375-1.984375-1.984375zm0 0" fill="url(#i)"/><path d="m7.9375 39.570312v.496094c0 1.097656.886719 1.984375 1.984375 1.984375h27.785156c1.097657 0 1.984375-.886719 1.984375-1.984375v-.496094c0 1.097657-.886718 1.984376-1.984375 1.984376h-27.785156c-1.097656 0-1.984375-.886719-1.984375-1.984376zm0 0" fill-opacity=".235294"/><path d="m9.921875 4.34375c-1.097656 0-1.984375.886719-1.984375 1.984375v.992187c0-1.097656.886719-1.984374 1.984375-1.984374h19.9375l9.832031 9.015624v-.996093l-9.832031-9.011719zm0 0" fill="#fff"/><path d="m29.859375 4.34375 1.082031.992188h6.765625c1.097657 0 1.984375.886718 1.984375 1.984374v-.992187c0-1.097656-.886718-1.984375-1.984375-1.984375zm0 0" fill="#fff" fill-opacity=".392157"/><path d="m29.859375 4.34375 9.832031 9.011719v-.824219l-8.929687-8.1875zm0 0" fill-opacity=".235294"/><path d="m1203.664647 175.101398h-803.70282c-44.247746 0-79.992366 35.74462-79.992366 79.992365v1360.027676c0 44.247745 35.74462 79.992365 79.992366 79.992365h1120.050579c44.247746 0 79.992366-35.74462 79.992366-79.992365v-1076.747626zm0 0" fill="none" stroke="#212121" stroke-linecap="round" stroke-linejoin="round" stroke-width="11.338583" transform="scale(.0248071)"/><path d="m318.469588-168.671091 104.864986 96.115822v-74.951176c0-11.707216-9.457431-21.164646-21.164646-21.164646zm0 0" fill="none" stroke="#212121" stroke-linecap="round" stroke-linejoin="round" stroke-width="3" transform="matrix(.093759 0 0 .093759 0 20.158175)"/><path d="m15.378906 16.996094 2.480469 14.882812h1.984375l2.980469-13.394531 2.976562 13.394531h1.984375c3.472656-5.953125 4.464844-12.402344 4.464844-17.363281l-2.976562.496094c0 4.464843-.0625 9.914062-1.984376 14.386719l-2.976562-13.890626-1.984375.496094-2.980469 13.394532-2.480468-11.90625 1.488281-1.984376zm0 0" fill="url(#j)"/><path d="m32.25 14.640625-2.976562.496094c0 4.464843-.0625 9.914062-1.984376 14.386719l-2.976562-13.890626-1.984375.496094-2.980469 13.394532-2.398437-11.519532-.082031.109375 2.480468 11.90625 2.980469-13.394531 1.984375-.496094 2.976562 13.890625c1.921876-4.472656 1.984376-9.921875 1.984376-14.386719l2.972656-.496093c0-.167969.003906-.332031.003906-.496094zm-13.894531.992187-2.976563 1.488282.078125.457031 2.304688-1.152344zm0 0" fill="#fff" fill-opacity=".470588"/><path d="m32.25 15.507812h-.015625c-.125 4.8125-1.207031 10.808594-4.449219 16.371094h-1.984375l-2.976562-13.394531-2.980469 13.394531h-1.984375l-2.328125-13.96875-.152344.078125 2.480469 14.882813h1.984375l2.980469-13.394532 2.976562 13.394532h1.984375c3.472656-5.953125 4.464844-12.402344 4.464844-17.363282zm-13.894531.992188-1.1875.59375-.300781.398438.164062.777343zm0 0" fill-opacity=".235294"/><path d="m164.026003-33.725644 26.455807 158.734841h21.164645l31.788631-142.861357 31.746969 142.861357h21.164645c37.03813-63.493936 47.620453-132.279034 47.620453-185.190648l-31.746969 5.291161c0 47.620453-.666603 105.739903-21.164645 153.44368l-31.746968-148.152518-21.164646 5.291161-31.788631 142.861357-26.455807-126.987873 15.873484-21.164645zm0 0" fill="none" stroke="#212121" stroke-linecap="round" stroke-linejoin="round" stroke-width="3" transform="matrix(.093759 0 0 .093759 0 20.158175)"/></svg>

<?xml version="1.0" encoding="UTF-8"?>
<svg xmlns="http://www.w3.org/2000/svg" xmlns:xlink="http://www.w3.org/1999/xlink" width="48px" height="48px" viewBox="0 0 48 48" version="1.1">
<defs>
<linearGradient id="linear0" gradientUnits="userSpaceOnUse" x1="254" y1="233.5" x2="254" y2="254.666672" gradientTransform="matrix(0.111618,0,0,0.093759,-3.945504,20.158178)">
<stop offset="0" style="stop-color:rgb(0%,0%,0%);stop-opacity:0.27451;"/>
<stop offset="1" style="stop-color:rgb(0%,0%,0%);stop-opacity:0;"/>
</linearGradient>
<radialGradient id="radial0" gradientUnits="userSpaceOnUse" cx="450.908936" cy="189.579361" fx="450.908936" fy="189.579361" r="21.166656" gradientTransform="matrix(0.000000261256,-0.117199,-0.210958,-0.000000152308,75.715273,95.392999)">
<stop offset="0" style="stop-color:rgb(0%,0%,0%);stop-opacity:0.313726;"/>
<stop offset="0.222222" style="stop-color:rgb(0%,0%,0%);stop-opacity:0.27451;"/>
<stop offset="1" style="stop-color:rgb(0%,0%,0%);stop-opacity:0;"/>
</radialGradient>
<radialGradient id="radial1" gradientUnits="userSpaceOnUse" cx="450.908936" cy="189.579361" fx="450.908936" fy="189.579361" r="21.166656" gradientTransform="matrix(-0.000000261256,0.117199,0.210958,0.000000152308,-28.085722,-11.291218)">
<stop offset="0" style="stop-color:rgb(0%,0%,0%);stop-opacity:0.313726;"/>
<stop offset="0.222222" style="stop-color:rgb(0%,0%,0%);stop-opacity:0.27451;"/>
<stop offset="1" style="stop-color:rgb(0%,0%,0%);stop-opacity:0;"/>
</radialGradient>
<radialGradient id="radial2" gradientUnits="userSpaceOnUse" cx="450.908936" cy="189.579361" fx="450.908936" fy="189.579361" r="21.166656" gradientTransform="matrix(-0.000000261256,-0.117199,0.210958,-0.000000152308,-28.085722,95.392999)">
<stop offset="0" style="stop-color:rgb(0%,0%,0%);stop-opacity:0.313726;"/>
<stop offset="0.222222" style="stop-color:rgb(0%,0%,0%);stop-opacity:0.27451;"/>
<stop offset="1" style="stop-color:rgb(0%,0%,0%);stop-opacity:0;"/>
</radialGradient>
<radialGradient id="radial3" gradientUnits="userSpaceOnUse" cx="450.908936" cy="189.579361" fx="450.908936" fy="189.579361" r="21.166656" gradientTransform="matrix(0.000000261256,0.117199,-0.210958,0.000000152308,75.71527,-11.291219)">
<stop offset="0" style="stop-color:rgb(0%,0%,0%);stop-opacity:0.313726;"/>
<stop offset="0.222222" style="stop-color:rgb(0%,0%,0%);stop-opacity:0.27451;"/>
<stop offset="1" style="stop-color:rgb(0%,0%,0%);stop-opacity:0;"/>
</radialGradient>
<linearGradient id="linear1" gradientUnits="userSpaceOnUse" x1="254" y1="233.5" x2="254" y2="-168.666672" gradientTransform="matrix(0.093759,0,0,0.093759,0,20.158174)">
<stop offset="0" style="stop-color:rgb(87.843138%,87.843138%,87.843138%);stop-opacity:1;"/>
<stop offset="1" style="stop-color:rgb(93.333334%,93.333334%,93.333334%);stop-opacity:1;"/>
</linearGradient>
<linearGradient id="linear2" gradientUnits="userSpaceOnUse" x1="413.712219" y1="-474.701691" x2="413.712219" y2="-72.535034" gradientTransform="matrix(0.093759,0,0,0.093759,0,20.158174)">
<stop offset="0" style="stop-color:rgb(50.588238%,78.039217%,51.764709%);stop-opacity:1;"/>
<stop offset="1" style="stop-color:rgb(40.000001%,73.333335%,41.568628%);stop-opacity:1;"/>
</linearGradient>
<linearGradient id="linear3" gradientUnits="userSpaceOnUse" x1="280.458344" y1="-89.291664" x2="280.458344" y2="132.958328" gradientTransform="matrix(0.093759,0,0,0.093759,-0.496141,20.902386)">
<stop offset="0" style="stop-color:rgb(50.588238%,78.039217%,51.764709%);stop-opacity:1;"/>
<stop offset="1" style="stop-color:rgb(40.000001%,73.333335%,41.568628%);stop-opacity:1;"/>
</linearGradient>
</defs>
<g id="surface1">
<path style=" stroke:none;fill-rule:nonzero;fill:url(#linear0);" d="M 11.410156 42.050781 L 36.21875 42.050781 L 36.21875 44.035156 L 11.410156 44.035156 Z M 11.410156 42.050781 "/>
<path style=" stroke:none;fill-rule:nonzero;fill:url(#radial0);" d="M 36.21875 42.050781 L 40.1875 42.050781 L 40.1875 40.066406 L 36.21875 40.066406 Z M 36.21875 42.050781 "/>
<path style=" stroke:none;fill-rule:nonzero;fill:url(#radial1);" d="M 11.410156 42.050781 L 7.441406 42.050781 L 7.441406 44.035156 L 11.410156 44.035156 Z M 11.410156 42.050781 "/>
<path style=" stroke:none;fill-rule:nonzero;fill:url(#radial2);" d="M 11.410156 42.050781 L 7.441406 42.050781 L 7.441406 40.066406 L 11.410156 40.066406 Z M 11.410156 42.050781 "/>
<path style=" stroke:none;fill-rule:nonzero;fill:url(#radial3);" d="M 36.21875 42.050781 L 40.1875 42.050781 L 40.1875 44.035156 L 36.21875 44.035156 Z M 36.21875 42.050781 "/>
<path style=" stroke:none;fill-rule:nonzero;fill:url(#linear1);" d="M 29.859375 4.34375 L 9.921875 4.34375 C 8.824219 4.34375 7.9375 5.230469 7.9375 6.328125 L 7.9375 40.066406 C 7.9375 41.164062 8.824219 42.050781 9.921875 42.050781 L 37.707031 42.050781 C 38.804688 42.050781 39.691406 41.164062 39.691406 40.066406 L 39.691406 13.355469 Z M 29.859375 4.34375 "/>
<path style=" stroke:none;fill-rule:nonzero;fill:url(#linear2);" d="M 29.859375 4.34375 L 39.691406 13.355469 L 39.691406 6.328125 C 39.691406 5.230469 38.804688 4.34375 37.707031 4.34375 Z M 29.859375 4.34375 "/>
<path style=" stroke:none;fill-rule:nonzero;fill:rgb(0%,0%,0%);fill-opacity:0.235294;" d="M 7.9375 39.570312 L 7.9375 40.066406 C 7.9375 41.164062 8.824219 42.050781 9.921875 42.050781 L 37.707031 42.050781 C 38.804688 42.050781 39.691406 41.164062 39.691406 40.066406 L 39.691406 39.570312 C 39.691406 40.667969 38.804688 41.554688 37.707031 41.554688 L 9.921875 41.554688 C 8.824219 41.554688 7.9375 40.667969 7.9375 39.570312 Z M 7.9375 39.570312 "/>
<path style=" stroke:none;fill-rule:nonzero;fill:rgb(100%,100%,100%);fill-opacity:1;" d="M 9.921875 4.34375 C 8.824219 4.34375 7.9375 5.230469 7.9375 6.328125 L 7.9375 7.320312 C 7.9375 6.222656 8.824219 5.335938 9.921875 5.335938 L 29.859375 5.335938 L 39.691406 14.351562 L 39.691406 13.355469 L 29.859375 4.34375 Z M 9.921875 4.34375 "/>
<path style=" stroke:none;fill-rule:nonzero;fill:rgb(100%,100%,100%);fill-opacity:0.392157;" d="M 29.859375 4.34375 L 30.941406 5.335938 L 37.707031 5.335938 C 38.804688 5.335938 39.691406 6.222656 39.691406 7.320312 L 39.691406 6.328125 C 39.691406 5.230469 38.804688 4.34375 37.707031 4.34375 Z M 29.859375 4.34375 "/>
<path style=" stroke:none;fill-rule:nonzero;fill:rgb(0%,0%,0%);fill-opacity:0.235294;" d="M 29.859375 4.34375 L 39.691406 13.355469 L 39.691406 12.53125 L 30.761719 4.34375 Z M 29.859375 4.34375 "/>
<path style="fill:none;stroke-width:11.338583;stroke-linecap:round;stroke-linejoin:round;stroke:rgb(12.941177%,12.941177%,12.941177%);stroke-opacity:1;stroke-miterlimit:4;" d="M 1203.664647 175.101398 L 399.961827 175.101398 C 355.714081 175.101398 319.969461 210.846018 319.969461 255.093763 L 319.969461 1615.121439 C 319.969461 1659.369184 355.714081 1695.113804 399.961827 1695.113804 L 1520.012406 1695.113804 C 1564.260152 1695.113804 1600.004772 1659.369184 1600.004772 1615.121439 L 1600.004772 538.373813 Z M 1203.664647 175.101398 " transform="matrix(0.0248071,0,0,0.0248071,0,0)"/>
<path style="fill:none;stroke-width:3;stroke-linecap:round;stroke-linejoin:round;stroke:rgb(12.941177%,12.941177%,12.941177%);stroke-opacity:1;stroke-miterlimit:4;" d="M 318.469588 -168.671091 L 423.334574 -72.555269 L 423.334574 -147.506445 C 423.334574 -159.213661 413.877143 -168.671091 402.169928 -168.671091 Z M 318.469588 -168.671091 " transform="matrix(0.093759,0,0,0.093759,0,20.158175)"/>
<path style=" stroke:none;fill-rule:nonzero;fill:url(#linear3);" d="M 15.378906 16.996094 L 17.859375 31.878906 L 19.84375 31.878906 L 22.824219 18.484375 L 25.800781 31.878906 L 27.785156 31.878906 C 31.257812 25.925781 32.25 19.476562 32.25 14.515625 L 29.273438 15.011719 C 29.273438 19.476562 29.210938 24.925781 27.289062 29.398438 L 24.3125 15.507812 L 22.328125 16.003906 L 19.347656 29.398438 L 16.867188 17.492188 L 18.355469 15.507812 Z M 15.378906 16.996094 "/>
<path style=" stroke:none;fill-rule:nonzero;fill:rgb(100%,100%,100%);fill-opacity:0.470588;" d="M 32.25 14.640625 L 29.273438 15.136719 C 29.273438 19.601562 29.210938 25.050781 27.289062 29.523438 L 24.3125 15.632812 L 22.328125 16.128906 L 19.347656 29.523438 L 16.949219 18.003906 L 16.867188 18.113281 L 19.347656 30.019531 L 22.328125 16.625 L 24.3125 16.128906 L 27.289062 30.019531 C 29.210938 25.546875 29.273438 20.097656 29.273438 15.632812 L 32.246094 15.136719 C 32.246094 14.96875 32.25 14.804688 32.25 14.640625 Z M 18.355469 15.632812 L 15.378906 17.121094 L 15.457031 17.578125 L 17.761719 16.425781 Z M 18.355469 15.632812 "/>
<path style=" stroke:none;fill-rule:nonzero;fill:rgb(0%,0%,0%);fill-opacity:0.235294;" d="M 32.25 15.507812 L 32.234375 15.507812 C 32.109375 20.320312 31.027344 26.316406 27.785156 31.878906 L 25.800781 31.878906 L 22.824219 18.484375 L 19.84375 31.878906 L 17.859375 31.878906 L 15.53125 17.910156 L 15.378906 17.988281 L 17.859375 32.871094 L 19.84375 32.871094 L 22.824219 19.476562 L 25.800781 32.871094 L 27.785156 32.871094 C 31.257812 26.917969 32.25 20.46875 32.25 15.507812 Z M 18.355469 16.5 L 17.167969 17.09375 L 16.867188 17.492188 L 17.03125 18.269531 Z M 18.355469 16.5 "/>
<path style="fill:none;stroke-width:3;stroke-linecap:round;stroke-linejoin:round;stroke:rgb(12.941177%,12.941177%,12.941177%);stroke-opacity:1;stroke-miterlimit:4;" d="M 164.026003 -33.725644 L 190.48181 125.009197 L 211.646455 125.009197 L 243.435086 -17.85216 L 275.182055 125.009197 L 296.3467 125.009197 C 333.38483 61.515261 343.967153 -7.269837 343.967153 -60.181451 L 312.220184 -54.89029 C 312.220184 -7.269837 311.553581 50.849613 291.055539 98.55339 L 259.308571 -49.599128 L 238.143925 -44.307967 L 206.355294 98.55339 L 179.899487 -28.434483 L 195.772971 -49.599128 Z M 164.026003 -33.725644 " transform="matrix(0.093759,0,0,0.093759,0,20.158175)"/>
</g>
</svg>
